src/images_karasa_jaga_svg/cmd/ru/lc_bold.svg

<svg height="24" viewBox="0 0 6.3499999 6.3500002" width="24" xmlns="http://www.w3.org/2000/svg" xmlns:xlink="http://www.w3.org/1999/xlink"><linearGradient id="a" gradientUnits="userSpaceOnUse" x1="13.870111" x2="15.393723" y1="26.825228" y2="6.157956"><stop offset="0" stop-color="#555"/><stop offset="1"/></linearGradient><linearGradient id="b" gradientUnits="userSpaceOnUse" x1="19.457708" x2="16.933138" y1="5.576836" y2="19.461974"><stop offset="0" stop-color="#3b3e22"/><stop offset="1" stop-color="#454545" stop-opacity="0"/></linearGradient><g transform="matrix(.171875 0 0 .171875 .264624 .264542)"><path d="m13.91662 10.206967q0-2.4307327-2.083485-2.6043564v-1.0417426h10.37402v1.0417426q-1.519208.2170297-1.909861.6510891-.347248.4340594-.347248 1.9532673v5.252119h.911525q.911525 0 1.60602-.824713.737901-.868119 1.041742-1.692832.303842-.868119.651089-1.996673.04341-.21703.08681-.347248 1.345585-4.4274055 5.208713-4.4274055 1.38899 0 2.257109.9115248.868119.9115247.868119 2.1268911 0 1.4758016-.824713 2.1702966-.824713.694495-1.779643.694495-1.345585 0-1.996674-1.215366-.04341-.130218-.217029-.564277-.130218-.4774655-.303842-.6944952-.130218-.2170297-.347248-.2170297-.607683 0-.998336 1.0851489-.390654 1.041742-.998337 2.691168-.607683 1.60602-1.649426 2.517545v.173623q1.866456.43406 3.125228 1.519208 1.302178 1.041743 1.866456 2.126891.564277 1.041743 1.302178 2.560951.737901 1.519208 1.38899 2.343921.868119 1.128554 2.126891 1.128554v1.041743h-6.858139l-3.429069-7.552634q-.08681-.130218-.303842-.434059-.217029-.303842-.303841-.390654-.04341-.130218-.21703-.347247-.173624-.21703-.303841-.303842-.08681-.08681-.260436-.173624-.173624-.08681-.390654-.130218-.173623-.0434-.390653-.0434h-.868119v5.729584q0 1.519208.347248 1.953267.390653.434059 1.909861.651089v1.041743h-10.374018v-1.041748q2.083485-.173624 2.083485-2.604356v-5.729584h-.868118q-.260436 0-.520872.08681-.217029.04341-.347247.130218-.130218.04341-.347248.303842-.217029.21703-.303841.303841-.04341.08681-.303842.477466-.260436.390653-.347247.520871l-3.4290698 7.552635h-6.85813869v-1.041743q1.30217819 0 2.12689109-1.128554.6510891-.824713 1.6494258-3.038416 1.0417426-2.257109 2.3439208-3.602693 1.3021782-1.38899 3.6895048-1.909862v-.173623q-1.0417424-.911525-1.6494256-2.517545-.6076832-1.649426-.9983366-2.691168-.3472476-1.0851489-.9549307-1.0851489-.2170297 0-.3906535.2170297-.1736238.2170297-.3472475.6510892-.1302178.434059-.2170297.607683-.5642773 1.215366-1.9532674 1.215366-.9549307 0-1.7796436-.694495-.8247128-.694495-.8247128-2.1702966 0-1.2153664.8247128-2.1268911.8681189-.9115248 2.257109-.9115248 3.9065347 0 5.2521188 4.4274055.9115248 3.081822 1.7362378 4.036753.694495.824713 1.649426.824713h.911524z" fill="url(#a)" stroke-width="1.031186"/><path d="m16.505859 26.005859c-2.888922 0-4.861454.833353-6.5468746 2.583985-1.6667142 1.849837-2.4140625 3.767341-2.4140625 6.214844 0 3.219263.7931756 5.004184 2.1542969 6.15039 1.6866412 1.420328 3.2529972 1.992188 5.0058592 1.992188 2.713861 0 3.877276-.740633 4.945313-3.041016a2.6854929 2.6854929 0 0 1 .03711-.07422c.05805-.116107.340908-.835577.650391-1.867187a2.6854929 2.6854929 0 0 1 .07227-.220703c.496138-1.240392 1.007216-2.25658 1.712891-3.138672.779165-.973957 2.135178-1.830078 3.574219-1.830078 1.562186 0 3.090571.826731 4.066406 1.933593.975835 1.106863 1.58876 2.447053 2.095703 4.03125l-.03516-.125c.985374 2.627664 2.236023 6.017672 3.763672 10.164063 1.160145 3.0661 2.798301 5.093815 4.517578 6.939453-2.294268-3.189275-4.232584-7.834455-6.31836-14.882812l-.0078-.02148c-1.589771-5.218776-3.85606-8.895293-6.658217-11.257816-2.806624-2.36629-6.200938-3.550782-10.615235-3.550782zm94.820311 0c-4.35391 0-7.7021 1.178288-10.48242 3.542969-2.780322 2.364681-5.037487 6.050832-6.628906 11.28711a2.6854929 2.6854929 0 0 1 -.02148.06641c-.05828.174878-.150597.522529-.24414.990234a2.6854929 2.6854929 0 0 1 -.06641.265625c-.882447 2.867955-1.715572 5.410556-2.496093 7.640625a2.6854929 2.6854929 0 0 1 -.01367.04297c-.902959 2.450895-2.39982 4.834331-4.40625 7.197265-2.122587 2.520567-5.015966 4.076172-8.121094 4.076172h-3.447265a2.6854929 2.6854929 0 0 1 -2.6875-2.6875v-19.849614c0-4.033235.07592-6.773135 1.904296-9.058594a2.6854929 2.6854929 0 0 1 .103516-.117187c.839985-.933315 1.914974-1.456085 3.072266-1.919922h-28.095708c1.151075.610287 2.219846 1.346013 3.033204 2.363281 1.820364 2.276736 2.554687 5.287282 2.554687 8.732422v19.849609a2.6854929 2.6854929 0 0 1 -2.6875 2.6875h-3.439453c-2.976319 0-5.739217-1.389331-7.839844-3.652343a2.6854929 2.6854929 0 0 1 .679688 1.783203v.658203a2.6854929 2.6854929 0 0 1 -2.111328 2.621094c-5.628654 1.22807-9.728596 3.410628-12.564454 6.435547a2.6854929 2.6854929 0 0 1 -.0293.0293c-.869327.898305-1.719233 1.907348-2.552735 3.001954a75.635303 34.9086 0 0 0 12.365235 2.236328l1.570312-3.458985a2.6854929 2.6854929 0 0 1 .207031-.382812l1.306645-1.964848c.643877-.965809 1.122659-1.788286.988281-1.519531a2.6854929 2.6854929 0 0 1 .509766-.701172l1.0625-1.054688c.584762-.703444 1.086761-1.306291 2.289062-1.765625.530041-.278815 1.068345-.519943 1.63086-.642578.868622-.271181 1.761846-.435547 2.65039-.435547h3.277344a2.6854929 2.6854929 0 0 1 2.6875 2.6875v10.580078a75.635303 34.9086 0 0 0 2.898438.06641 75.635303 34.9086 0 0 0 14.529297-.681641v-9.964844a2.6854929 2.6854929 0 0 1 2.6875-2.6875h3.285156c.700426 0 1.386405.07222 2.066406.236328.731618.151975 1.440067.384093 2.089844.708985.534425.267212 1.013604.597272 1.484375 1.025391.583241.432831 1.065683.905835 1.541015 1.5.308372.385477.497944.831572.732422 1.232421.46026.480613.794777.929098 1.328125 1.675782.556505.779111.944681 1.329124 1.195313 1.705078a2.6854929 2.6854929 0 0 1 .207031.382812l.714844 1.576172a75.635303 34.9086 0 0 0 10.820311-2.8418c-.62318-.584036-1.298867-1.170734-2.035155-1.759765a2.6854929 2.6854929 0 0 1 -.08008-.06055c-2.809194-2.421687-6.308915-4.1541-10.660156-5.166016a2.6854929 2.6854929 0 0 1 -2.082032-2.613281v-.658203a2.6854929 2.6854929 0 0 1 .916016-2.021485c2.230439-1.951634 4.080727-4.715021 5.492187-8.445312 1.527648-4.146395 2.7783-7.536403 3.763672-10.164063l-.0059.03711c.567364-1.576 1.231529-2.903921 2.228516-3.986328.996986-1.082408 2.506182-1.890625 4.068362-1.890625 1.4004 0 2.82501.987155 3.51953 2.066406.69219.936198 1.13649 1.95613 1.48633 3.1875.32375.813833.52176 1.336031.67773 1.773437 1.26941 2.345439 2.58413 3.144532 5.14454 3.144532 1.75286 0 3.30901-.569842 4.99804-1.992188 1.36352-1.148224 2.16211-2.932726 2.16211-6.148437 0-2.420746-.76169-4.32126-2.53906-6.1875-1.69399-1.778682-3.6805-2.613282-6.5918-2.613282zm-3.85156 12.023438c-.0224-.05644-.0229-.06321-.0469-.123047l.0977.287109c-.0156-.05728-.0348-.107705-.0508-.164062zm-64.726563 27.117187c-.02678.03221-.05288.06111-.08008.09375l.169922-.183593zm-1.431641-7.683593a2.6854929 2.6854929 0 0 0 -.136718-.142579c.04433.04923.09177.09415.136718.142579zm-.136718-.142579c-.03906-.04337-.08252-.08101-.121094-.125.0083.0072.01317.02212.02148.0293a2.6854929 2.6854929 0 0 1 .09961.0957z" fill="url(#b)" stroke-width="3.897397" transform="scale(.26458334)"/></g></svg>

<?xml version="1.0" encoding="UTF-8" standalone="no"?>
<svg
   xmlns:dc="http://purl.org/dc/elements/1.1/"
   xmlns:cc="http://creativecommons.org/ns#"
   xmlns:rdf="http://www.w3.org/1999/02/22-rdf-syntax-ns#"
   xmlns:svg="http://www.w3.org/2000/svg"
   xmlns="http://www.w3.org/2000/svg"
   xmlns:xlink="http://www.w3.org/1999/xlink"
   xmlns:sodipodi="http://sodipodi.sourceforge.net/DTD/sodipodi-0.dtd"
   xmlns:inkscape="http://www.inkscape.org/namespaces/inkscape"
   height="128"
   viewBox="0 0 33.866666 33.866668"
   width="128"
   version="1.1"
   id="svg20"
   sodipodi:docname="lc_bold.svg"
   inkscape:version="0.92.4 (unknown)"
   inkscape:export-filename="/home/rizmut/Dokumen/Rizmut/Github/libreoffice-style-karasa-jaga/build/images_karasa_jaga/cmd/ru/lc_bold.png"
   inkscape:export-xdpi="16.5"
   inkscape:export-ydpi="16.5">
  <metadata
     id="metadata26">
    <rdf:RDF>
      <cc:Work
         rdf:about="">
        <dc:format>image/svg+xml</dc:format>
        <dc:type
           rdf:resource="http://purl.org/dc/dcmitype/StillImage" />
        <dc:title></dc:title>
      </cc:Work>
    </rdf:RDF>
  </metadata>
  <defs
     id="defs24">
    <linearGradient
       inkscape:collect="always"
       xlink:href="#a"
       id="linearGradient22"
       gradientUnits="userSpaceOnUse"
       gradientTransform="matrix(1.0085453,0,0,1.0085453,-5.2883039,-270.51672)"
       x1="18.99608880061"
       y1="294.82258903077"
       x2="20.50679"
       y2="274.33044" />
    <linearGradient
       inkscape:collect="always"
       xlink:href="#b"
       id="linearGradient847"
       x1="75.6353"
       y1="11.638"
       x2="63.9991"
       y2="75.6371"
       gradientUnits="userSpaceOnUse" />
  </defs>
  <sodipodi:namedview
     pagecolor="#ffffff"
     bordercolor="#666666"
     borderopacity="1"
     objecttolerance="10"
     gridtolerance="10"
     guidetolerance="10"
     inkscape:pageopacity="0"
     inkscape:pageshadow="2"
     inkscape:window-width="1366"
     inkscape:window-height="706"
     id="namedview22"
     showgrid="true"
     inkscape:zoom="0.92187498"
     inkscape:cx="67.760445"
     inkscape:cy="-4.3366994"
     inkscape:window-x="0"
     inkscape:window-y="0"
     inkscape:window-maximized="1"
     inkscape:current-layer="svg20">
    <inkscape:grid
       type="xygrid"
       id="grid16"
       spacingx="0.76968615"
       spacingy="0.76968615" />
  </sodipodi:namedview>
  <linearGradient
     id="a"
     gradientUnits="userSpaceOnUse"
     x1="18.99608880061"
     x2="20.22575014415"
     y1="294.82258903077"
     y2="266.54036534865"
     gradientTransform="matrix(0.82,0,0,0.82,0.27763305,-213.00366)">
    <stop
       offset="0"
       stop-color="#555"
       id="stop2" />
    <stop
       offset="1"
       id="stop4" />
  </linearGradient>
  <linearGradient
     id="b"
     gradientUnits="userSpaceOnUse"
     x1="53.856667"
     x2="72.864624"
     y1="1.845663"
     y2="61.042988"
     gradientTransform="matrix(0.21695833,0,0,0.21695833,3.048,3.0518754)">
    <stop
       offset="0"
       stop-color="#3b3e22"
       id="stop7" />
    <stop
       offset="1"
       stop-color="#454545"
       stop-opacity="0"
       id="stop9" />
  </linearGradient>
  <text
     style="font-size:41.24745941px;font-family:sans-serif;letter-spacing:0;word-spacing:0;fill:url(#linearGradient22);stroke-width:1.03118622"
     x="-0.53755796"
     y="26.571007"
     id="text20">
    <tspan
       font-size="43.038166"
       font-weight="bold"
       x="-0.53755796"
       y="26.571007"
       id="tspan18"
       style="font-weight:bold;font-size:43.40594101px;font-family:FreeSerif;fill:url(#linearGradient22);stroke-width:1.03118622">ж</tspan>
  </text>
  <path
     style="font-size:41.24745941px;font-family:sans-serif;letter-spacing:0;word-spacing:0;fill:url(#linearGradient847);stroke-width:3.8973968;fill-opacity:1"
     d="M 16.505859 26.005859 C 13.616937 26.005859 11.644405 26.839212 9.9589844 28.589844 C 8.2922702 30.439681 7.5449219 32.357185 7.5449219 34.804688 C 7.5449219 38.023951 8.3380975 39.808872 9.6992188 40.955078 C 11.38586 42.375406 12.952216 42.947266 14.705078 42.947266 C 17.418939 42.947266 18.582354 42.206633 19.650391 39.90625 A 2.6854929 2.6854929 0 0 1 19.6875 39.832031 C 19.745554 39.715924 20.028408 38.996454 20.337891 37.964844 A 2.6854929 2.6854929 0 0 1 20.410156 37.744141 C 20.906294 36.503749 21.417372 35.487561 22.123047 34.605469 C 22.902212 33.631512 24.258225 32.775391 25.697266 32.775391 C 27.259452 32.775391 28.787837 33.602122 29.763672 34.708984 C 30.739507 35.815847 31.352432 37.156037 31.859375 38.740234 L 31.824219 38.615234 C 32.809593 41.242898 34.060242 44.632906 35.587891 48.779297 C 36.748036 51.845397 38.386192 53.873112 40.105469 55.71875 C 37.811201 52.529475 35.872885 47.884295 33.787109 40.835938 L 33.779297 40.814453 C 32.18954 35.595681 29.923251 31.919164 27.121094 29.556641 C 24.31447 27.190351 20.920156 26.005859 16.505859 26.005859 z M 111.32617 26.005859 C 106.97226 26.005859 103.62407 27.184147 100.84375 29.548828 C 98.063428 31.913509 95.806263 35.59966 94.214844 40.835938 A 2.6854929 2.6854929 0 0 1 94.193359 40.902344 C 94.135079 41.077222 94.042762 41.424873 93.949219 41.892578 A 2.6854929 2.6854929 0 0 1 93.882812 42.158203 C 93.000365 45.026158 92.16724 47.568759 91.386719 49.798828 A 2.6854929 2.6854929 0 0 1 91.373047 49.841797 C 90.470088 52.292692 88.973227 54.676128 86.966797 57.039062 C 84.84421 59.559629 81.950831 61.115234 78.845703 61.115234 L 75.398438 61.115234 A 2.6854929 2.6854929 0 0 1 72.710938 58.427734 L 72.710938 38.578125 C 72.710938 34.54489 72.786861 31.80499 74.615234 29.519531 A 2.6854929 2.6854929 0 0 1 74.71875 29.402344 C 75.558735 28.469029 76.633724 27.946259 77.791016 27.482422 L 49.695312 27.482422 C 50.846387 28.092709 51.915158 28.828435 52.728516 29.845703 C 54.54888 32.122439 55.283203 35.132985 55.283203 38.578125 L 55.283203 58.427734 A 2.6854929 2.6854929 0 0 1 52.595703 61.115234 L 49.15625 61.115234 C 46.179931 61.115234 43.417033 59.725903 41.316406 57.462891 A 2.6854929 2.6854929 0 0 1 41.996094 59.246094 L 41.996094 59.904297 A 2.6854929 2.6854929 0 0 1 39.884766 62.525391 C 34.256112 63.753461 30.15617 65.936019 27.320312 68.960938 A 2.6854929 2.6854929 0 0 1 27.291016 68.990234 C 26.421689 69.888539 25.571783 70.897582 24.738281 71.992188 A 75.635303 34.9086 0 0 0 37.103516 74.228516 L 38.673828 70.769531 A 2.6854929 2.6854929 0 0 1 38.880859 70.386719 L 40.1875 68.421875 C 40.831377 67.456066 41.310159 66.633589 41.175781 66.902344 A 2.6854929 2.6854929 0 0 1 41.685547 66.201172 L 42.748047 65.146484 C 43.332809 64.44304 43.834808 63.840193 45.037109 63.380859 C 45.56715 63.102044 46.105454 62.860916 46.667969 62.738281 C 47.536591 62.4671 48.429815 62.302734 49.318359 62.302734 L 52.595703 62.302734 A 2.6854929 2.6854929 0 0 1 55.283203 64.990234 L 55.283203 75.570312 A 75.635303 34.9086 0 0 0 58.181641 75.636719 A 75.635303 34.9086 0 0 0 72.710938 74.955078 L 72.710938 64.990234 A 2.6854929 2.6854929 0 0 1 75.398438 62.302734 L 78.683594 62.302734 C 79.38402 62.302734 80.069999 62.374955 80.75 62.539062 C 81.481618 62.691037 82.190067 62.923155 82.839844 63.248047 C 83.374269 63.515259 83.853448 63.845319 84.324219 64.273438 C 84.90746 64.706269 85.389902 65.179273 85.865234 65.773438 C 86.173606 66.158915 86.363178 66.60501 86.597656 67.005859 C 87.057916 67.486472 87.392433 67.934957 87.925781 68.681641 C 88.482286 69.460752 88.870462 70.010765 89.121094 70.386719 A 2.6854929 2.6854929 0 0 1 89.328125 70.769531 L 90.042969 72.345703 A 75.635303 34.9086 0 0 0 100.86328 69.503906 C 100.2401 68.91987 99.564413 68.333172 98.828125 67.744141 A 2.6854929 2.6854929 0 0 1 98.748047 67.683594 C 95.938853 65.261907 92.439132 63.529494 88.087891 62.517578 A 2.6854929 2.6854929 0 0 1 86.005859 59.904297 L 86.005859 59.246094 A 2.6854929 2.6854929 0 0 1 86.921875 57.224609 C 89.152314 55.272975 91.002602 52.509588 92.414062 48.779297 C 93.94171 44.632902 95.192362 41.242894 96.177734 38.615234 L 96.171875 38.652344 C 96.739239 37.076344 97.403404 35.748423 98.400391 34.666016 C 99.397377 33.583608 100.90657 32.775391 102.46875 32.775391 C 103.86915 32.775391 105.29376 33.762546 105.98828 34.841797 C 106.68047 35.777995 107.12477 36.797927 107.47461 38.029297 C 107.79836 38.84313 107.99637 39.365328 108.15234 39.802734 C 109.42175 42.148173 110.73647 42.947266 113.29688 42.947266 C 115.04974 42.947266 116.60589 42.377424 118.29492 40.955078 C 119.65844 39.806854 120.45703 38.022352 120.45703 34.806641 C 120.45703 32.385895 119.69534 30.485381 117.91797 28.619141 C 116.22398 26.840459 114.23747 26.005859 111.32617 26.005859 z M 107.47461 38.029297 C 107.45216 37.972853 107.45167 37.96609 107.42773 37.90625 L 107.52539 38.193359 C 107.50977 38.136076 107.49062 38.085654 107.47461 38.029297 z M 42.748047 65.146484 C 42.721271 65.178695 42.695169 65.207594 42.667969 65.240234 L 42.837891 65.056641 L 42.748047 65.146484 z M 41.316406 57.462891 A 2.6854929 2.6854929 0 0 0 41.179688 57.320312 C 41.224019 57.369541 41.271457 57.414466 41.316406 57.462891 z M 41.179688 57.320312 C 41.14063 57.27694 41.097165 57.239302 41.058594 57.195312 C 41.066909 57.202494 41.071763 57.217428 41.080078 57.224609 A 2.6854929 2.6854929 0 0 1 41.179688 57.320312 z "
     transform="scale(0.26458334)"
     id="text26" />
</svg>
